build/img/email.svg

<svg width="32" height="32" viewBox="0 0 32 32" fill="none" xmlns="http://www.w3.org/2000/svg">
<path d="M26.6667 5.33331H8C6.52933 5.33331 5.33333 6.52931 5.33333 7.99998V14.6666H8V10.6666L16.5333 17.0666C16.7642 17.2395 17.0449 17.333 17.3333 17.333C17.6218 17.333 17.9025 17.2395 18.1333 17.0666L26.6667 10.6666V22.6666H16V25.3333H26.6667C28.1373 25.3333 29.3333 24.1373 29.3333 22.6666V7.99998C29.3333 6.52931 28.1373 5.33331 26.6667 5.33331ZM17.3333 14.3333L8.888 7.99998H25.7787L17.3333 14.3333Z" fill="#000080"/>
<path d="M2.66667 16H12V18.6667H2.66667V16ZM5.33333 20H13.3333V22.6667H5.33333V20ZM9.33333 24H14.6667V26.6667H9.33333V24Z" fill="#000080"/>
</svg>

<svg width="32" height="32" fill="none" xmlns="http://www.w3.org/2000/svg"><path d="M26.667 5.333H8A2.67 2.67 0 005.333 8v6.667H8v-4l8.533 6.4a1.335 1.335 0 001.6 0l8.534-6.4v12H16v2.666h10.667a2.67 2.67 0 002.666-2.666V8a2.67 2.67 0 00-2.666-2.667zm-9.334 9L8.888 8h16.89l-8.445 6.333z" fill="navy"/><path d="M2.667 16H12v2.667H2.667V16zm2.666 4h8v2.667h-8V20zm4 4h5.334v2.667H9.333V24z" fill="navy"/></svg>
